Newaita-dark/apps/16/toggldesktop.svg

<svg height="16" viewBox="0 0 16 16" width="16" xmlns="http://www.w3.org/2000/svg" xmlns:xlink="http://www.w3.org/1999/xlink"><linearGradient id="a"><stop offset="0" stop-opacity=".313726"/><stop offset=".222222" stop-opacity=".27451"/><stop offset="1" stop-opacity="0"/></linearGradient><radialGradient id="b" cx="450.908936" cy="189.579361" gradientTransform="matrix(.00000009 -.0390662 -.0703192 -.00000005 22.261576 31.797665)" gradientUnits="userSpaceOnUse" r="21.166656" xlink:href="#a"/><radialGradient id="c" cx="450.908936" cy="189.579361" gradientTransform="matrix(-.00000009 .0390662 .0703192 .00000005 -6.385059 -3.763741)" gradientUnits="userSpaceOnUse" r="21.166656" xlink:href="#a"/><radialGradient id="d" cx="450.908936" cy="189.579361" gradientTransform="matrix(-.00000009 -.0390662 .0703192 -.00000005 -6.385059 31.797665)" gradientUnits="userSpaceOnUse" r="21.166656" xlink:href="#a"/><radialGradient id="e" cx="450.908936" cy="189.579361" gradientTransform="matrix(.00000009 .0390662 -.0703192 .00000005 22.261575 -3.763741)" gradientUnits="userSpaceOnUse" r="21.166656" xlink:href="#a"/><linearGradient id="f" gradientTransform="matrix(.00668003 0 0 .031253 6.232693 6.719392)" gradientUnits="userSpaceOnUse" x1="255.323059" x2="255.323044" y1="233.5" y2="254.666656"><stop offset="0" stop-opacity=".27451"/><stop offset="1" stop-opacity="0"/></linearGradient><linearGradient id="g" gradientUnits="userSpaceOnUse" x1="254" x2="254" y1="-168.666672" y2="233.5"><stop offset="0" stop-color="#ef5350"/><stop offset="1" stop-color="#f44336"/></linearGradient><linearGradient id="h" gradientUnits="userSpaceOnUse" x1="7.9382592" x2="7.9382592" y1="14.01696600048" y2="1.4480552201"><stop offset="0" stop-color="#bdbdbd"/><stop offset="1" stop-color="#e0e0e0"/></linearGradient><path d="m9.097656 14.015625h1.320313v-.660156h-1.320313zm0 0" fill="url(#b)"/><path d="m6.78125 14.015625h-1.324219v.664063h1.324219zm0 0" fill="url(#c)"/><path d="m6.78125 14.015625h-1.324219v-.660156h1.324219zm0 0" fill="url(#d)"/><path d="m9.097656 14.015625h1.320313v.664063h-1.320313zm0 0" fill="url(#e)"/><path d="m6.78125 13.851562h2.316406v.828126h-2.316406zm0 0" fill="url(#f)"/><path d="m253.975747-168.629428c111.114389 0 201.105795 89.991406 201.105795 201.105795 0 110.989401-89.991406 200.980807-201.105795 200.980807-110.989402 0-201.105796-89.991406-201.105796-200.980807 0-111.114389 90.116394-201.105795 201.105796-201.105795zm0 0" fill="url(#g)" stroke="#333" stroke-linecap="round" stroke-width="3" transform="matrix(.031253 0 0 .031253 0 6.719392)"/><path d="m7.9375 14.015625c-3.480469 0-6.285156-2.800781-6.285156-6.28125 0-.023437 0-.042969 0-.0625.035156 3.453125 2.824218 6.222656 6.285156 6.222656s6.253906-2.769531 6.285156-6.222656v.0625c0 3.480469-2.804687 6.28125-6.285156 6.28125zm0 0" fill-opacity=".196078"/><path d="m7.9375 1.449219c-3.480469 0-6.285156 2.800781-6.285156 6.285156v.058594c.035156-3.453125 2.824218-6.222657 6.285156-6.222657s6.253906 2.769532 6.285156 6.222657c0-.019531 0-.039063 0-.058594 0-3.484375-2.804687-6.285156-6.285156-6.285156zm0 0" fill="#fff" fill-opacity=".392157"/><path d="m7.9375 1.402344c-3.507812 0-6.332031 2.824218-6.332031 6.332031 0 3.503906 2.824219 6.328125 6.332031 6.328125s6.332031-2.824219 6.332031-6.328125c0-3.507813-2.824219-6.332031-6.332031-6.332031zm0 .09375c3.457031 0 6.238281 2.78125 6.238281 6.238281 0 3.453125-2.78125 6.234375-6.238281 6.234375s-6.238281-2.78125-6.238281-6.234375c0-3.457031 2.78125-6.238281 6.238281-6.238281zm0 0" fill="#212121"/><path d="m7.9375 4.09375c-.183594 0-.328125.148438-.328125.332031v3.308594c0 .179687.144531.328125.328125.328125s.332031-.148438.332031-.328125v-3.308594c0-.183593-.148437-.332031-.332031-.332031zm-.660156.734375c-1.328125.300781-2.316406 1.484375-2.316406 2.90625 0 1.648437 1.328124 2.976563 2.976562 2.976563s2.976562-1.328126 2.976562-2.976563c0-1.421875-.984374-2.605469-2.3125-2.90625v.683594c.957032.285156 1.652344 1.167969 1.652344 2.222656 0 1.28125-1.03125 2.3125-2.316406 2.3125-1.28125 0-2.316406-1.03125-2.316406-2.3125 0-1.054687.699218-1.9375 1.65625-2.222656zm0 0" fill="url(#h)"/><path d="m7.9375 4.09375c-.183594 0-.328125.148438-.328125.332031v.164063c0-.183594.144531-.332032.328125-.332032s.332031.148438.332031.332032v-.164063c0-.183593-.148437-.332031-.332031-.332031zm-.660156.734375c-1.328125.300781-2.316406 1.484375-2.316406 2.90625v.082031c.039062-1.386718 1.011718-2.527344 2.316406-2.820312zm1.324218 0v.167969c1.300782.292968 2.277344 1.433594 2.3125 2.820312 0-.027344 0-.054687 0-.082031 0-1.421875-.984374-2.605469-2.3125-2.90625zm-2.976562 2.984375c0 .03125-.003906.058594-.003906.085938 0 1.28125 1.035156 2.316406 2.316406 2.316406 1.285156 0 2.316406-1.035156 2.316406-2.316406 0-.027344 0-.054688 0-.085938-.042968 1.246094-1.058594 2.234375-2.316406 2.234375-1.253906 0-2.269531-.988281-2.3125-2.234375zm0 0" fill="#fff"/><path d="m7.277344 5.546875c-.910156.269531-1.582032 1.078125-1.648438 2.058594 0-.011719 0-.023438-.003906-.035157 0 .042969-.003906.082032-.003906.125 0 .054688.003906.105469.007812.160157.066406-.980469.738282-1.789063 1.648438-2.058594zm1.324218 0v.25c.90625.269531 1.578126 1.078125 1.644532 2.058594.003906-.054688.007812-.105469.007812-.160157 0-.042968 0-.082031-.003906-.125 0 .011719 0 .023438-.003906.035157-.066406-.980469-.738282-1.789063-1.644532-2.058594zm-.992187 2.222656v.246094c0 .183594.144531.332031.328125.332031s.332031-.148437.332031-.332031v-.246094c0 .183594-.148437.328125-.332031.328125s-.328125-.144531-.328125-.328125zm-2.644531.125c-.003906.039063-.003906.082031-.003906.121094 0 1.648437 1.328124 2.976563 2.976562 2.976563s2.976562-1.328126 2.976562-2.976563c0-.039063 0-.082031 0-.121094-.066406 1.589844-1.367187 2.851563-2.976562 2.851563-1.605469 0-2.90625-1.261719-2.972656-2.851563zm0 0" fill-opacity=".235294"/><path d="m959.908384 495.070859c-22.202606 0-39.681252 17.951043-39.681252 40.153648v400.119292c0 21.73021 17.478646 39.681252 39.681252 39.681252 22.202605 0 40.153648-17.951042 40.153648-39.681252v-400.119292c0-22.202605-17.951043-40.153648-40.153648-40.153648zm-79.8349 88.810422c-160.614592 36.374481-280.130744 179.510426-280.130744 351.462518 0 199.351052 160.614592 359.965644 359.965644 359.965644s359.965644-160.614592 359.965644-359.965644c0-171.952092-119.043757-315.088037-279.658348-351.462518v82.669275c115.736985 34.484898 199.823448 141.246361 199.823448 268.793243 0 154.945842-124.712507 279.658348-280.130744 279.658348-154.945842 0-280.130744-124.712506-280.130744-279.658348 0-127.546882 84.558859-234.308345 200.295844-268.793243zm0 0" fill="none" stroke="#212121" stroke-linecap="round" stroke-linejoin="round" stroke-width="11.338583" transform="scale(.00826902)"/></svg>

<?xml version="1.0" encoding="UTF-8"?>
<svg xmlns="http://www.w3.org/2000/svg" xmlns:xlink="http://www.w3.org/1999/xlink" width="16px" height="16px" viewBox="0 0 16 16" version="1.1">
<defs>
<radialGradient id="radial0" gradientUnits="userSpaceOnUse" cx="450.908936" cy="189.579361" fx="450.908936" fy="189.579361" r="21.166656" gradientTransform="matrix(0.0000000870852,-0.0390662,-0.0703192,-0.0000000507693,22.261576,31.797665)">
<stop offset="0" style="stop-color:rgb(0%,0%,0%);stop-opacity:0.313726;"/>
<stop offset="0.222222" style="stop-color:rgb(0%,0%,0%);stop-opacity:0.27451;"/>
<stop offset="1" style="stop-color:rgb(0%,0%,0%);stop-opacity:0;"/>
</radialGradient>
<radialGradient id="radial1" gradientUnits="userSpaceOnUse" cx="450.908936" cy="189.579361" fx="450.908936" fy="189.579361" r="21.166656" gradientTransform="matrix(-0.0000000870852,0.0390662,0.0703192,0.0000000507693,-6.385059,-3.763741)">
<stop offset="0" style="stop-color:rgb(0%,0%,0%);stop-opacity:0.313726;"/>
<stop offset="0.222222" style="stop-color:rgb(0%,0%,0%);stop-opacity:0.27451;"/>
<stop offset="1" style="stop-color:rgb(0%,0%,0%);stop-opacity:0;"/>
</radialGradient>
<radialGradient id="radial2" gradientUnits="userSpaceOnUse" cx="450.908936" cy="189.579361" fx="450.908936" fy="189.579361" r="21.166656" gradientTransform="matrix(-0.0000000870852,-0.0390662,0.0703192,-0.0000000507693,-6.385059,31.797665)">
<stop offset="0" style="stop-color:rgb(0%,0%,0%);stop-opacity:0.313726;"/>
<stop offset="0.222222" style="stop-color:rgb(0%,0%,0%);stop-opacity:0.27451;"/>
<stop offset="1" style="stop-color:rgb(0%,0%,0%);stop-opacity:0;"/>
</radialGradient>
<radialGradient id="radial3" gradientUnits="userSpaceOnUse" cx="450.908936" cy="189.579361" fx="450.908936" fy="189.579361" r="21.166656" gradientTransform="matrix(0.0000000870852,0.0390662,-0.0703192,0.0000000507693,22.261575,-3.763741)">
<stop offset="0" style="stop-color:rgb(0%,0%,0%);stop-opacity:0.313726;"/>
<stop offset="0.222222" style="stop-color:rgb(0%,0%,0%);stop-opacity:0.27451;"/>
<stop offset="1" style="stop-color:rgb(0%,0%,0%);stop-opacity:0;"/>
</radialGradient>
<linearGradient id="linear0" gradientUnits="userSpaceOnUse" x1="255.323059" y1="233.5" x2="255.323044" y2="254.666656" gradientTransform="matrix(0.00668003,0,0,0.031253,6.232693,6.719392)">
<stop offset="0" style="stop-color:rgb(0%,0%,0%);stop-opacity:0.27451;"/>
<stop offset="1" style="stop-color:rgb(0%,0%,0%);stop-opacity:0;"/>
</linearGradient>
<linearGradient id="linear1" gradientUnits="userSpaceOnUse" x1="254" y1="-168.666672" x2="254" y2="233.5" >
<stop offset="0" style="stop-color:rgb(93.725491%,32.549021%,31.37255%);stop-opacity:1;"/>
<stop offset="1" style="stop-color:rgb(95.686275%,26.274511%,21.176471%);stop-opacity:1;"/>
</linearGradient>
<linearGradient id="linear2" gradientUnits="userSpaceOnUse" x1="960" y1="1695.118164" x2="960" y2="175.118118" gradientTransform="matrix(0.00826902,0,0,0.00826902,0,0)">
<stop offset="0" style="stop-color:rgb(74.117649%,74.117649%,74.117649%);stop-opacity:1;"/>
<stop offset="1" style="stop-color:rgb(87.843138%,87.843138%,87.843138%);stop-opacity:1;"/>
</linearGradient>
</defs>
<g id="surface1">
<path style=" stroke:none;fill-rule:nonzero;fill:url(#radial0);" d="M 9.097656 14.015625 L 10.417969 14.015625 L 10.417969 13.355469 L 9.097656 13.355469 Z M 9.097656 14.015625 "/>
<path style=" stroke:none;fill-rule:nonzero;fill:url(#radial1);" d="M 6.78125 14.015625 L 5.457031 14.015625 L 5.457031 14.679688 L 6.78125 14.679688 Z M 6.78125 14.015625 "/>
<path style=" stroke:none;fill-rule:nonzero;fill:url(#radial2);" d="M 6.78125 14.015625 L 5.457031 14.015625 L 5.457031 13.355469 L 6.78125 13.355469 Z M 6.78125 14.015625 "/>
<path style=" stroke:none;fill-rule:nonzero;fill:url(#radial3);" d="M 9.097656 14.015625 L 10.417969 14.015625 L 10.417969 14.679688 L 9.097656 14.679688 Z M 9.097656 14.015625 "/>
<path style=" stroke:none;fill-rule:nonzero;fill:url(#linear0);" d="M 6.78125 13.851562 L 9.097656 13.851562 L 9.097656 14.679688 L 6.78125 14.679688 Z M 6.78125 13.851562 "/>
<path style="fill-rule:nonzero;fill:url(#linear1);stroke-width:3;stroke-linecap:round;stroke-linejoin:miter;stroke:rgb(20%,20%,20%);stroke-opacity:1;stroke-miterlimit:4;" d="M 253.975747 -168.629428 C 365.090136 -168.629428 455.081542 -78.638022 455.081542 32.476367 C 455.081542 143.465768 365.090136 233.457174 253.975747 233.457174 C 142.986345 233.457174 52.869951 143.465768 52.869951 32.476367 C 52.869951 -78.638022 142.986345 -168.629428 253.975747 -168.629428 Z M 253.975747 -168.629428 " transform="matrix(0.031253,0,0,0.031253,0,6.719392)"/>
<path style=" stroke:none;fill-rule:nonzero;fill:rgb(0%,0%,0%);fill-opacity:0.196078;" d="M 7.9375 14.015625 C 4.457031 14.015625 1.652344 11.214844 1.652344 7.734375 C 1.652344 7.710938 1.652344 7.691406 1.652344 7.671875 C 1.6875 11.125 4.476562 13.894531 7.9375 13.894531 C 11.398438 13.894531 14.191406 11.125 14.222656 7.671875 C 14.222656 7.691406 14.222656 7.710938 14.222656 7.734375 C 14.222656 11.214844 11.417969 14.015625 7.9375 14.015625 Z M 7.9375 14.015625 "/>
<path style=" stroke:none;fill-rule:nonzero;fill:rgb(100%,100%,100%);fill-opacity:0.392157;" d="M 7.9375 1.449219 C 4.457031 1.449219 1.652344 4.25 1.652344 7.734375 C 1.652344 7.753906 1.652344 7.773438 1.652344 7.792969 C 1.6875 4.339844 4.476562 1.570312 7.9375 1.570312 C 11.398438 1.570312 14.191406 4.339844 14.222656 7.792969 C 14.222656 7.773438 14.222656 7.753906 14.222656 7.734375 C 14.222656 4.25 11.417969 1.449219 7.9375 1.449219 Z M 7.9375 1.449219 "/>
<path style=" stroke:none;fill-rule:nonzero;fill:rgb(12.941177%,12.941177%,12.941177%);fill-opacity:1;" d="M 7.9375 1.402344 C 4.429688 1.402344 1.605469 4.226562 1.605469 7.734375 C 1.605469 11.238281 4.429688 14.0625 7.9375 14.0625 C 11.445312 14.0625 14.269531 11.238281 14.269531 7.734375 C 14.269531 4.226562 11.445312 1.402344 7.9375 1.402344 Z M 7.9375 1.496094 C 11.394531 1.496094 14.175781 4.277344 14.175781 7.734375 C 14.175781 11.1875 11.394531 13.96875 7.9375 13.96875 C 4.480469 13.96875 1.699219 11.1875 1.699219 7.734375 C 1.699219 4.277344 4.480469 1.496094 7.9375 1.496094 Z M 7.9375 1.496094 "/>
<path style=" stroke:none;fill-rule:nonzero;fill:url(#linear2);" d="M 7.9375 4.09375 C 7.753906 4.09375 7.609375 4.242188 7.609375 4.425781 L 7.609375 7.734375 C 7.609375 7.914062 7.753906 8.0625 7.9375 8.0625 C 8.121094 8.0625 8.269531 7.914062 8.269531 7.734375 L 8.269531 4.425781 C 8.269531 4.242188 8.121094 4.09375 7.9375 4.09375 Z M 7.277344 4.828125 C 5.949219 5.128906 4.960938 6.3125 4.960938 7.734375 C 4.960938 9.382812 6.289062 10.710938 7.9375 10.710938 C 9.585938 10.710938 10.914062 9.382812 10.914062 7.734375 C 10.914062 6.3125 9.929688 5.128906 8.601562 4.828125 L 8.601562 5.511719 C 9.558594 5.796875 10.253906 6.679688 10.253906 7.734375 C 10.253906 9.015625 9.222656 10.046875 7.9375 10.046875 C 6.65625 10.046875 5.621094 9.015625 5.621094 7.734375 C 5.621094 6.679688 6.320312 5.796875 7.277344 5.511719 Z M 7.277344 4.828125 "/>
<path style=" stroke:none;fill-rule:nonzero;fill:rgb(100%,100%,100%);fill-opacity:1;" d="M 7.9375 4.09375 C 7.753906 4.09375 7.609375 4.242188 7.609375 4.425781 L 7.609375 4.589844 C 7.609375 4.40625 7.753906 4.257812 7.9375 4.257812 C 8.121094 4.257812 8.269531 4.40625 8.269531 4.589844 L 8.269531 4.425781 C 8.269531 4.242188 8.121094 4.09375 7.9375 4.09375 Z M 7.277344 4.828125 C 5.949219 5.128906 4.960938 6.3125 4.960938 7.734375 C 4.960938 7.761719 4.960938 7.789062 4.960938 7.816406 C 5 6.429688 5.972656 5.289062 7.277344 4.996094 Z M 8.601562 4.828125 L 8.601562 4.996094 C 9.902344 5.289062 10.878906 6.429688 10.914062 7.816406 C 10.914062 7.789062 10.914062 7.761719 10.914062 7.734375 C 10.914062 6.3125 9.929688 5.128906 8.601562 4.828125 Z M 5.625 7.8125 C 5.625 7.84375 5.621094 7.871094 5.621094 7.898438 C 5.621094 9.179688 6.65625 10.214844 7.9375 10.214844 C 9.222656 10.214844 10.253906 9.179688 10.253906 7.898438 C 10.253906 7.871094 10.253906 7.84375 10.253906 7.8125 C 10.210938 9.058594 9.195312 10.046875 7.9375 10.046875 C 6.683594 10.046875 5.667969 9.058594 5.625 7.8125 Z M 5.625 7.8125 "/>
<path style=" stroke:none;fill-rule:nonzero;fill:rgb(0%,0%,0%);fill-opacity:0.235294;" d="M 7.277344 5.546875 C 6.367188 5.816406 5.695312 6.625 5.628906 7.605469 C 5.628906 7.59375 5.628906 7.582031 5.625 7.570312 C 5.625 7.613281 5.621094 7.652344 5.621094 7.695312 C 5.621094 7.75 5.625 7.800781 5.628906 7.855469 C 5.695312 6.875 6.367188 6.066406 7.277344 5.796875 Z M 8.601562 5.546875 L 8.601562 5.796875 C 9.507812 6.066406 10.179688 6.875 10.246094 7.855469 C 10.25 7.800781 10.253906 7.75 10.253906 7.695312 C 10.253906 7.652344 10.253906 7.613281 10.25 7.570312 C 10.25 7.582031 10.25 7.59375 10.246094 7.605469 C 10.179688 6.625 9.507812 5.816406 8.601562 5.546875 Z M 7.609375 7.769531 L 7.609375 8.015625 C 7.609375 8.199219 7.753906 8.347656 7.9375 8.347656 C 8.121094 8.347656 8.269531 8.199219 8.269531 8.015625 L 8.269531 7.769531 C 8.269531 7.953125 8.121094 8.097656 7.9375 8.097656 C 7.753906 8.097656 7.609375 7.953125 7.609375 7.769531 Z M 4.964844 7.894531 C 4.960938 7.933594 4.960938 7.976562 4.960938 8.015625 C 4.960938 9.664062 6.289062 10.992188 7.9375 10.992188 C 9.585938 10.992188 10.914062 9.664062 10.914062 8.015625 C 10.914062 7.976562 10.914062 7.933594 10.914062 7.894531 C 10.847656 9.484375 9.546875 10.746094 7.9375 10.746094 C 6.332031 10.746094 5.03125 9.484375 4.964844 7.894531 Z M 4.964844 7.894531 "/>
<path style="fill:none;stroke-width:11.338583;stroke-linecap:round;stroke-linejoin:round;stroke:rgb(12.941177%,12.941177%,12.941177%);stroke-opacity:1;stroke-miterlimit:4;" d="M 959.908384 495.070859 C 937.705778 495.070859 920.227132 513.021902 920.227132 535.224507 L 920.227132 935.343799 C 920.227132 957.074009 937.705778 975.025051 959.908384 975.025051 C 982.110989 975.025051 1000.062032 957.074009 1000.062032 935.343799 L 1000.062032 535.224507 C 1000.062032 513.021902 982.110989 495.070859 959.908384 495.070859 Z M 880.073484 583.881281 C 719.458892 620.255762 599.94274 763.391707 599.94274 935.343799 C 599.94274 1134.694851 760.557332 1295.309443 959.908384 1295.309443 C 1159.259436 1295.309443 1319.874028 1134.694851 1319.874028 935.343799 C 1319.874028 763.391707 1200.830271 620.255762 1040.21568 583.881281 L 1040.21568 666.550556 C 1155.952665 701.035454 1240.039128 807.796917 1240.039128 935.343799 C 1240.039128 1090.289641 1115.326621 1215.002147 959.908384 1215.002147 C 804.962542 1215.002147 679.77764 1090.289641 679.77764 935.343799 C 679.77764 807.796917 764.336499 701.035454 880.073484 666.550556 Z M 880.073484 583.881281 " transform="matrix(0.00826902,0,0,0.00826902,0,0)"/>
</g>
</svg>
